data/img/exit-replay.svg

<?xml version="1.0" encoding="UTF-8" standalone="no"?>
<svg width="48px" height="47px" viewBox="0 0 48 47" version="1.1" xmlns="http://www.w3.org/2000/svg" xmlns:xlink="http://www.w3.org/1999/xlink">
    <!-- Generator: Sketch 39.1 (31720) - http://www.bohemiancoding.com/sketch -->
    <title>Page 1</title>
    <desc>Created with Sketch.</desc>
    <defs></defs>
    <g id="Page-2" stroke="none" stroke-width="1" fill="none" fill-rule="evenodd" fill-opacity="0.8">
        <path d="M5.14333344,0.474901121 C6.1634279,1.06981335 6.85777791,2.16362893 6.85777791,3.42888896 L6.85777791,12.1622691 C10.8027147,5.89426012 17.7633592,1.71444448 25.7166672,1.71444448 C38.0263785,1.71444448 48.0044454,11.6925113 48.0044454,24.0022227 C48.0044454,36.3119341 38.0263785,46.2900009 25.7166672,46.2900009 C19.5618115,46.2900009 13.9898669,43.7954842 9.95749353,39.7613963 L14.8059425,34.9129474 C17.5987726,37.7057774 21.4562726,39.432223 25.7166672,39.432223 C34.2391707,39.432223 41.1466675,32.5247262 41.1466675,24.0022227 C41.1466675,15.4797192 34.2391707,8.57222239 25.7166672,8.57222239 C19.6612493,8.57222239 14.4356225,12.0679747 11.9102458,17.1444448 L20.5733337,17.1444448 C22.4677949,17.1444448 24.0022227,18.6788726 24.0022227,20.5733337 C24.0022227,22.4677949 22.4677949,24.0022227 20.5733337,24.0022227 L10.2866669,24.0022227 L3.42888896,24.0022227 C1.53442781,24.0022227 0,22.4677949 0,20.5733337 L0,3.42888896 C0,1.53442781 1.53442781,0 3.42888896,0 C4.05637564,0 4.63757231,0.181731115 5.14333344,0.474901121 Z" id="Page-1" fill="#FFFFFF"></path>
    </g>
</svg>

<svg width="48" height="47" viewBox="0 0 48 47" xmlns="http://www.w3.org/2000/svg"><title>Page 1</title><path d="M5.143.475a3.418 3.418 0 0 1 1.715 2.954v8.733C10.803 5.894 17.763 1.714 25.717 1.714c12.31 0 22.287 9.979 22.287 22.288 0 12.31-9.978 22.288-22.287 22.288a22.212 22.212 0 0 1-15.76-6.529l4.849-4.848a15.381 15.381 0 0 0 10.91 4.52c8.523 0 15.43-6.908 15.43-15.43 0-8.523-6.907-15.43-15.43-15.43-6.055 0-11.28 3.495-13.806 8.571h8.663a3.428 3.428 0 0 1 3.43 3.43 3.428 3.428 0 0 1-3.43 3.428H3.43A3.428 3.428 0 0 1 0 20.573V3.43A3.428 3.428 0 0 1 3.429 0c.627 0 1.209.182 1.714.475z" fill="#FFF" fill-rule="evenodd" fill-opacity=".8"/></svg>
